X: 201149
T: Thadelo's #1
S: "Johnny O'Leary of Sliabh Luachra" (#112)
Z: B.Black
L: 1/8
M: 4/4
R: hornpipe
K: Amix
c2 cB cBAB|cAFA E3B|ABcA (3BcB AB|cBBA (3BcB A2|
BccB cBAB|cAFA E3B|A2 cA (3BcB AB|cAAB A4|
c2 cB cBAB|cAFA E3B|A2 cA (3BcB AB|cBBA (3BcB A2|
ceec ecAB|ceFA E3c|A2 cA (3BcB AB|cAAB A4 ||
ceec e2 e2|faag a2 af|e2 ef ecAB|cBBA (3BcB A2|
ceec e2 e2|faag a2 af|e2 ef ecAB|ceBc A4|
ceec e2 e2|faag a2 af|e2 ef ecAB|cBBA (3BcB A2|
ceec e z e2|faag a2 (3efg|a2 af ecAB|ceBc A4||
